X: 3253
T: Behind The Ditch In Pairc Anna
R: hornpipe
M: 4/4
K: Adorian
|:G/|E>A-A>B c2 d2|(3efe e>d B2 d2|e>A-A>B (3cBA G>B|A>B (3cBA G>E D2|
E>A-A>B c2 d2|(3efe e>d B2 d2|e>A-A>B (3cBA G>E|A2- A>G A2- A3/2:|
|:e|e>a-a>g e2 d2|e>a-a>g e2 d2|e>A-A>B (3cBA G>B|A>B (3cBA G>E D2|
E>A-A>B c2 d2|(3efe e>d B2 d2|e>A-A>B (3cBA G>E|A2- A>G A2- A3/2:|

